icons/Suru/scalable/categories/emoji-nature-symbolic.svg

<svg version="1.1" viewBox="0 0 16 16" xmlns="http://www.w3.org/2000/svg">
 <path d="m6.5 1c-1.0833 0-1.9857 0.27863-2.6035 0.89648-0.61785 0.61785-0.89648 1.5202-0.89648 2.6035v7.793l-1.8535 1.8535a0.5 0.5 0 0 0 0 0.70703 0.5 0.5 0 0 0 0.70703 0l2.1465-2.1465v-8.207c0-0.91667 0.22137-1.5143 0.60352-1.8965 0.38215-0.38215 0.97982-0.60352 1.8965-0.60352h7.5v7.5c0 0.91667-0.22137 1.5143-0.60352 1.8965-0.38215 0.38215-0.97982 0.60352-1.8965 0.60352h-6a0.5 0.5 0 0 0-0.5 0.5 0.5 0.5 0 0 0 0.5 0.5h6c1.0833 0 1.9857-0.27863 2.6035-0.89648 0.61785-0.61785 0.89648-1.5202 0.89648-2.6035v-8.5h-8.5zm3 2a0.5 0.5 0 0 0-0.5 0.5v2.793l-1.8281 1.8281a0.5 0.5 0 0 0-0.041016 0.042969l-0.13086 0.12891v-3.793a0.5 0.5 0 0 0-0.5-0.5 0.5 0.5 0 0 0-0.5 0.5v5a0.50005 0.50005 0 0 0 0.85352 0.35352l0.85352-0.85352h4.793a0.5 0.5 0 0 0 0.5-0.5 0.5 0.5 0 0 0-0.5-0.5h-3.793l1.1211-1.1211a0.5 0.5 0 0 0 0.041016-0.042969l2.9844-2.9824a0.5 0.5 0 0 0 0-0.70703 0.5 0.5 0 0 0-0.37695-0.14648 0.5 0.5 0 0 0-0.33008 0.14648l-2.1465 2.1465v-1.793a0.5 0.5 0 0 0-0.5-0.5z" color="#000000" color-rendering="auto" dominant-baseline="auto" fill="#808080" image-rendering="auto" shape-rendering="auto" solid-color="#000000" stop-color="#000000" style="font-feature-settings:normal;font-variant-alternates:normal;font-variant-caps:normal;font-variant-east-asian:normal;font-variant-ligatures:normal;font-variant-numeric:normal;font-variant-position:normal;font-variation-settings:normal;inline-size:0;isolation:auto;mix-blend-mode:normal;shape-margin:0;shape-padding:0;text-decoration-color:#000000;text-decoration-line:none;text-decoration-style:solid;text-indent:0;text-orientation:mixed;text-transform:none;white-space:normal"/>
</svg>

<svg xmlns="http://www.w3.org/2000/svg" height="16" width="16">
    <path style="line-height:normal;font-variant-ligatures:normal;font-variant-position:normal;font-variant-caps:normal;font-variant-numeric:normal;font-variant-alternates:normal;font-variant-east-asian:normal;font-feature-settings:normal;font-variation-settings:normal;text-indent:0;text-align:start;text-decoration-line:none;text-decoration-style:solid;text-decoration-color:#000;text-transform:none;text-orientation:mixed;white-space:normal;shape-padding:0;shape-margin:0;inline-size:0;isolation:auto;mix-blend-mode:normal;solid-color:#000;solid-opacity:1" d="M6.5 1c-1.083 0-1.986.279-2.604.896C3.28 2.514 3 3.416 3 4.5v7.793l-1.854 1.853a.5.5 0 000 .708.5.5 0 00.708 0L4 12.707V4.5c0-.917.221-1.514.604-1.896C4.986 2.22 5.584 2 6.5 2H14v7.5c0 .917-.221 1.514-.604 1.896-.382.383-.98.604-1.896.604h-6a.5.5 0 00-.5.5.5.5 0 00.5.5h6c1.083 0 1.986-.279 2.604-.896.617-.618.896-1.52.896-2.604V1H6.5zm3 2a.5.5 0 00-.5.5v2.793L7.172 8.121a.5.5 0 00-.041.043L7 8.293V4.5a.5.5 0 00-.5-.5.5.5 0 00-.5.5v5a.5.5 0 00.854.354L7.707 9H12.5a.5.5 0 00.5-.5.5.5 0 00-.5-.5H8.707l1.121-1.121a.5.5 0 00.041-.043l2.985-2.982a.5.5 0 000-.708.5.5 0 00-.377-.146.5.5 0 00-.33.146L10 5.293V3.5a.5.5 0 00-.5-.5z" color="#000" font-weight="400" font-family="sans-serif" overflow="visible" fill="gray"/>
</svg>
